X: 22070
T: Knocknaboul, The
R: polka
M: 2/4
K: Gmajor
|:GB B/c/B/A/|GB BG|FA AG|FA D2|
GB B/c/B/A/|GB dg|fd cA|G2 G2:|
|:g2 g>f|ga ag|fd de|fg af|
g2 g>f|ga ag|fd cA|1 G2 G2:|2 G2[^A2D2]||
|:[BD]>A Bc|dB AG|F>E FG|AF ED|
B>A Bc|dB Gg|fd cA|1 G2 [^A2D2]:|2 G2 G2||

